X: 28717
T: My Dream Of You
R: waltz
M: 3/4
K: Gminor
(3D=E^F|:G3BAG|^F2D2CA,|A,2G,3A,|G,4 (3G,A,B,|
A,3A,CE|G3BAG|^F6|-^F4(3D=E^F|G3BAG|^F2D2CA,|A,2G,3A,|
G,4 (3G,A,B,|A,3CEG|B3AG^F|1 G6-|-G4(3D=E^F:|2 G6-|-G3DGB||
c2B3A|A3D^FA|B2A3^F|G3D^FA|c2B3A|A3Bce|d3BcA|G3DGB|
c2B3A|A3D^FA|B2A3^F|G4ED|C3DEF|G2c3B/c/|A6-|A4(3D=E^F|
G3BAG|^F2D2CA,|A,2G,3A,|G,4 (3G,A,B,|A,3CEG|B3AG^F|G6||

